X:1
T: Ellis's Jig
C:
R:Jig
Q:180
K:G
M:6/8
L:1/16
D2|G2A2G2 B4G2|c4A2 F4D2|G2A2G2 B4c2|d4g2 B4c2|d2g2e2 =f4d2|c2A2G2 F4A2|d2e2d2 c2B2A2|G6 G4D2|
G2A2G2 B4G2|c4A2 F4D2|G2A2G2 B4c2|d4g2 B4c2|d2g2e2 =f4d2|c2A2G2 F4A2|d2e2d2 c2B2A2|G6 G4d2|
g4d2 B4G2|c4A2 F4D2|g4d2 B4c2|d2d2e2 f4e2|d2g2e2 f4d2|c2A2G2 F4A2|d2e2d2 c2B2A2|G6 G4d2|
g4d2 B4G2|c4A2 F4D2|g4d2 B4c2|d2d2e2 f4e2|d2g2e2 f4d2|c2A2G2 F4A2|d2e2d2 c2B2A2|G6 G4||
